src/images/GeneFit/Survey1.svg

<svg width="369" height="302" viewBox="0 0 369 302" fill="none" xmlns="http://www.w3.org/2000/svg">
<path d="M313.165 264H314.725L314.245 249H312.205L307.213 262.248L302.149 249H300.085L299.581 264H301.093L301.357 250.872L306.325 263.904H308.005L312.925 250.896L313.165 264ZM323.743 261.576V258.36C320.047 258.768 318.631 259.584 318.631 261.096C318.631 262.248 319.567 263.016 320.887 263.016C321.943 263.016 322.903 262.536 323.743 261.576ZM323.839 262.68H323.767C322.879 263.76 321.823 264.312 320.551 264.312C318.535 264.312 317.071 263.04 317.071 261.264C317.071 258.912 319.303 257.616 323.743 257.352V256.704C323.743 254.952 322.879 254.088 321.151 254.088C319.999 254.088 318.559 254.664 317.551 255.408L317.215 254.016C318.271 253.272 319.903 252.696 321.295 252.696C323.935 252.696 325.255 254.016 325.231 256.632V261.912C325.231 262.776 325.423 263.04 326.335 263.016L326.239 264.24C324.823 264.336 324.007 263.808 323.839 262.68ZM330.042 264V247.512L328.554 247.824V264H330.042ZM334.291 258.552V258.672C334.363 261.192 335.851 262.92 338.131 262.92C339.331 262.92 340.387 262.608 341.323 262.008L341.611 263.376C340.603 264 339.427 264.312 338.083 264.312C334.939 264.312 332.779 261.984 332.779 258.6C332.779 256.872 333.283 255.456 334.267 254.352C335.251 253.248 336.475 252.696 337.963 252.696C340.411 252.696 341.971 254.28 341.971 256.752C341.971 257.4 341.899 257.976 341.731 258.504L334.291 258.552ZM334.387 257.376L340.483 257.352C340.507 257.28 340.507 257.112 340.507 256.872C340.507 255.144 339.571 254.04 337.867 254.04C335.971 254.04 334.651 255.456 334.387 257.376Z" fill="#FBFBFB"/>
<path d="M1.94148 24H3.47748V17.448H9.52549V16.032H3.47748V10.44H10.7735V9H1.94148V24ZM13.7915 18.552V18.672C13.8635 21.192 15.3515 22.92 17.6315 22.92C18.8315 22.92 19.8875 22.608 20.8235 22.008L21.1115 23.376C20.1035 24 18.9275 24.312 17.5835 24.312C14.4395 24.312 12.2795 21.984 12.2795 18.6C12.2795 16.872 12.7835 15.456 13.7675 14.352C14.7515 13.248 15.9755 12.696 17.4635 12.696C19.9115 12.696 21.4715 14.28 21.4715 16.752C21.4715 17.4 21.3995 17.976 21.2315 18.504L13.7915 18.552ZM13.8875 17.376L19.9835 17.352C20.0075 17.28 20.0075 17.112 20.0075 16.872C20.0075 15.144 19.0715 14.04 17.3675 14.04C15.4715 14.04 14.1515 15.456 13.8875 17.376ZM39.4889 24H38.0009V16.92C38.0009 15.048 37.2329 14.112 35.6729 14.112C34.6169 14.112 33.5849 14.592 32.5769 15.528C32.6009 15.72 32.6249 16.056 32.6249 16.512V24H31.1369V16.92C31.1369 15.048 30.3689 14.112 28.8089 14.112C27.7289 14.112 26.7209 14.544 25.7609 15.384V24H24.2729V13.008L25.7609 12.696V14.208C26.8649 13.2 28.0169 12.696 29.2409 12.696C30.7049 12.696 31.6889 13.296 32.2169 14.52C33.4409 13.296 34.7369 12.696 36.1049 12.696C38.2169 12.696 39.4889 14.064 39.4889 16.488V24ZM48.6183 21.576V18.36C44.9223 18.768 43.5063 19.584 43.5063 21.096C43.5063 22.248 44.4423 23.016 45.7623 23.016C46.8183 23.016 47.7783 22.536 48.6183 21.576ZM48.7143 22.68H48.6423C47.7543 23.76 46.6983 24.312 45.4263 24.312C43.4103 24.312 41.9463 23.04 41.9463 21.264C41.9463 18.912 44.1783 17.616 48.6183 17.352V16.704C48.6183 14.952 47.7543 14.088 46.0263 14.088C44.8743 14.088 43.4343 14.664 42.4263 15.408L42.0903 14.016C43.1463 13.272 44.7783 12.696 46.1703 12.696C48.8103 12.696 50.1303 14.016 50.1063 16.632V21.912C50.1063 22.776 50.2983 23.04 51.2103 23.016L51.1143 24.24C49.6983 24.336 48.8823 23.808 48.7143 22.68ZM54.9172 24V7.512L53.4292 7.824V24H54.9172ZM59.1665 18.552V18.672C59.2385 21.192 60.7265 22.92 63.0065 22.92C64.2065 22.92 65.2625 22.608 66.1985 22.008L66.4865 23.376C65.4785 24 64.3025 24.312 62.9585 24.312C59.8145 24.312 57.6545 21.984 57.6545 18.6C57.6545 16.872 58.1585 15.456 59.1425 14.352C60.1265 13.248 61.3505 12.696 62.8385 12.696C65.2865 12.696 66.8465 14.28 66.8465 16.752C66.8465 17.4 66.7745 17.976 66.6065 18.504L59.1665 18.552ZM59.2625 17.376L65.3585 17.352C65.3825 17.28 65.3825 17.112 65.3825 16.872C65.3825 15.144 64.4465 14.04 62.7425 14.04C60.8465 14.04 59.5265 15.456 59.2625 17.376Z" fill="#FBFBFB"/>
<path d="M299.29 289.732C299.29 287.548 300.01 285.58 301.426 283.828C302.842 282.1 304.858 280.924 307.522 280.3L308.122 282.172C304.402 283.108 302.17 284.98 301.426 287.788L301.474 287.812C302.554 286.828 303.826 286.324 305.29 286.324C307.762 286.324 309.682 288.22 309.682 290.98C309.682 293.884 307.666 295.972 304.57 295.972C302.914 295.972 301.642 295.372 300.706 294.172C299.77 292.996 299.29 291.508 299.29 289.732ZM301.378 290.356C301.378 292.468 302.674 294.148 304.666 294.148C306.49 294.148 307.69 292.9 307.69 291.076C307.69 289.276 306.49 288.076 304.762 288.076C303.466 288.076 302.242 288.676 301.498 289.348C301.426 289.636 301.378 289.972 301.378 290.356ZM314.497 295.612H316.441V283.9L311.641 285.484L311.713 287.284L314.497 286.396V295.612ZM321.079 292.9C321.511 292.9 321.871 293.044 322.159 293.332C322.447 293.644 322.591 294.004 322.591 294.412C322.591 294.82 322.447 295.18 322.159 295.492C321.871 295.804 321.511 295.972 321.079 295.972C320.623 295.972 320.263 295.804 319.975 295.492C319.663 295.18 319.519 294.82 319.519 294.412C319.519 294.004 319.663 293.644 319.975 293.332C320.263 293.044 320.623 292.9 321.079 292.9ZM326.454 290.452C327.246 290.38 327.822 290.332 328.158 290.332C331.302 290.332 333.318 292.132 333.318 294.94C333.318 296.452 332.814 297.7 331.806 298.66C330.774 299.62 329.526 300.1 328.038 300.1C326.43 300.1 325.038 299.764 323.862 299.068L324.222 297.124C325.542 297.868 326.838 298.228 328.062 298.228C329.958 298.228 331.302 296.956 331.302 295.036C331.302 293.356 330.006 292.036 327.918 292.036C326.862 292.036 325.878 292.18 324.966 292.444L324.438 291.964L325.422 284.26H332.91L332.982 286.204H327.03L326.454 290.452ZM342.023 284.044C342.023 286.252 340.463 288.004 338.039 288.004C335.663 288.004 334.055 286.252 334.055 284.044C334.055 282.916 334.415 281.98 335.159 281.188C335.879 280.42 336.839 280.036 338.039 280.036C339.239 280.036 340.199 280.42 340.943 281.188C341.663 281.956 342.023 282.916 342.023 284.044ZM349.343 280.276L337.391 295.972H335.879L347.831 280.276H349.343ZM351.143 292.204C351.143 293.332 350.783 294.268 350.063 295.036C349.319 295.828 348.359 296.212 347.159 296.212C345.959 296.212 344.999 295.828 344.279 295.06C343.535 294.292 343.175 293.332 343.175 292.204C343.175 289.996 344.759 288.244 347.159 288.244C349.535 288.244 351.143 289.996 351.143 292.204ZM340.727 284.044C340.727 283.252 340.487 282.604 340.007 282.076C339.503 281.548 338.855 281.284 338.039 281.284C337.223 281.284 336.575 281.548 336.095 282.076C335.591 282.604 335.351 283.252 335.351 284.044C335.351 284.788 335.591 285.436 336.095 285.964C336.575 286.492 337.223 286.756 338.039 286.756C338.855 286.756 339.503 286.492 340.007 285.964C340.487 285.436 340.727 284.788 340.727 284.044ZM349.847 292.204C349.847 291.46 349.607 290.812 349.127 290.284C348.623 289.756 347.975 289.492 347.159 289.492C346.343 289.492 345.695 289.756 345.215 290.284C344.711 290.812 344.471 291.46 344.471 292.204C344.471 292.996 344.711 293.644 345.215 294.172C345.695 294.7 346.343 294.964 347.159 294.964C347.975 294.964 348.623 294.7 349.127 294.172C349.607 293.644 349.847 292.996 349.847 292.204Z" fill="#FBFBFB"/>
<path d="M6.50148 50.92C8.78148 51.28 10.0295 52.888 10.0295 54.712C10.0295 56.176 9.50148 57.352 8.46949 58.192C7.41349 59.056 6.09348 59.488 4.50948 59.488C2.80548 59.488 1.43748 59.176 0.453484 58.576L0.813484 56.728C1.74948 57.376 2.99748 57.688 4.53348 57.688C6.62148 57.688 7.96549 56.68 7.96549 54.856C7.96549 53.248 6.69349 52.408 4.70148 52.336C4.10148 52.312 3.35748 52.384 2.49348 52.528V50.824C5.73348 50.08 7.34148 48.928 7.34148 47.392C7.34148 45.952 6.35748 45.16 4.62948 45.16C3.57348 45.16 2.42148 45.616 1.17348 46.552L0.477484 44.872C1.79748 43.84 3.26148 43.312 4.84548 43.312C7.74949 43.312 9.50148 44.848 9.50148 47.104C9.50148 48.808 8.20548 50.248 6.50148 50.92ZM17.362 46.888C18.706 46.336 19.378 45.424 19.378 44.176C19.378 42.64 18.226 41.656 16.642 41.656C14.842 41.656 13.786 42.616 13.786 43.936C13.786 44.224 13.858 44.488 14.002 44.752C14.146 45.016 14.314 45.208 14.482 45.376C14.65 45.544 14.938 45.736 15.346 45.952C15.73 46.168 16.042 46.312 16.258 46.408C16.474 46.528 16.858 46.672 17.362 46.888ZM15.922 48.232C14.434 48.712 13.546 49.744 13.546 51.088C13.546 52.6 14.842 53.608 16.666 53.608C18.562 53.608 19.594 52.792 19.594 51.352C19.594 51.088 19.546 50.848 19.474 50.632C19.402 50.416 19.258 50.2 19.042 49.984C18.826 49.768 18.634 49.6 18.49 49.48C18.346 49.36 18.082 49.216 17.674 49.024C17.266 48.832 17.002 48.712 16.882 48.64C16.738 48.568 16.426 48.448 15.922 48.232ZM18.85 47.56C20.698 48.496 21.61 49.672 21.61 51.112C21.61 53.512 19.762 55.36 16.57 55.36C13.33 55.36 11.554 53.656 11.554 51.304C11.554 49.504 12.994 47.968 14.434 47.584C12.754 46.72 11.794 45.76 11.794 44.152C11.794 41.632 13.69 39.904 16.738 39.904C19.762 39.904 21.37 41.68 21.37 43.96C21.37 45.64 20.194 47.008 18.85 47.56ZM25.2329 52.288C25.6649 52.288 26.0249 52.432 26.3129 52.72C26.6009 53.032 26.7449 53.392 26.7449 53.8C26.7449 54.208 26.6009 54.568 26.3129 54.88C26.0249 55.192 25.6649 55.36 25.2329 55.36C24.7769 55.36 24.4169 55.192 24.1289 54.88C23.8169 54.568 23.6729 54.208 23.6729 53.8C23.6729 53.392 23.8169 53.032 24.1289 52.72C24.4169 52.432 24.7769 52.288 25.2329 52.288ZM30.608 49.84C31.4 49.768 31.976 49.72 32.312 49.72C35.456 49.72 37.472 51.52 37.472 54.328C37.472 55.84 36.968 57.088 35.96 58.048C34.928 59.008 33.68 59.488 32.192 59.488C30.584 59.488 29.192 59.152 28.016 58.456L28.376 56.512C29.696 57.256 30.992 57.616 32.216 57.616C34.112 57.616 35.456 56.344 35.456 54.424C35.456 52.744 34.16 51.424 32.072 51.424C31.016 51.424 30.032 51.568 29.12 51.832L28.592 51.352L29.576 43.648H37.064L37.136 45.592H31.184L30.608 49.84ZM46.177 43.432C46.177 45.64 44.617 47.392 42.193 47.392C39.817 47.392 38.209 45.64 38.209 43.432C38.209 42.304 38.569 41.368 39.313 40.576C40.033 39.808 40.993 39.424 42.193 39.424C43.393 39.424 44.353 39.808 45.097 40.576C45.817 41.344 46.177 42.304 46.177 43.432ZM53.497 39.664L41.545 55.36H40.033L51.985 39.664H53.497ZM55.297 51.592C55.297 52.72 54.937 53.656 54.217 54.424C53.473 55.216 52.513 55.6 51.313 55.6C50.113 55.6 49.153 55.216 48.433 54.448C47.689 53.68 47.329 52.72 47.329 51.592C47.329 49.384 48.913 47.632 51.313 47.632C53.689 47.632 55.297 49.384 55.297 51.592ZM44.881 43.432C44.881 42.64 44.641 41.992 44.161 41.464C43.657 40.936 43.009 40.672 42.193 40.672C41.377 40.672 40.729 40.936 40.249 41.464C39.745 41.992 39.505 42.64 39.505 43.432C39.505 44.176 39.745 44.824 40.249 45.352C40.729 45.88 41.377 46.144 42.193 46.144C43.009 46.144 43.657 45.88 44.161 45.352C44.641 44.824 44.881 44.176 44.881 43.432ZM54.001 51.592C54.001 50.848 53.761 50.2 53.281 49.672C52.777 49.144 52.129 48.88 51.313 48.88C50.497 48.88 49.849 49.144 49.369 49.672C48.865 50.2 48.625 50.848 48.625 51.592C48.625 52.384 48.865 53.032 49.369 53.56C49.849 54.088 50.497 54.352 51.313 54.352C52.129 54.352 52.777 54.088 53.281 53.56C53.761 53.032 54.001 52.384 54.001 51.592Z" fill="#FBFBFB"/>
<path d="M170.429 18.0701C191.079 18.0701 211.42 23.0806 229.707 32.6715C247.995 42.2625 263.682 56.1475 275.423 73.1349C287.164 90.1223 294.607 109.705 297.115 130.202C299.622 150.699 297.119 171.498 289.82 190.815C282.521 210.132 270.644 227.389 255.208 241.106C239.772 254.823 221.238 264.589 201.197 269.567C181.156 274.546 160.207 274.587 140.147 269.687C120.086 264.788 101.515 255.094 86.0249 241.438L170.429 145.701L170.429 18.0701Z" fill="#EC8539"/>
<path d="M170.408 18.0299C144.482 18.0299 119.17 25.9257 97.8421 40.6665C76.514 55.4072 60.181 76.2938 51.0167 100.546C41.8523 124.799 40.2914 151.268 46.5416 176.429C52.7918 201.591 66.5567 224.253 86.0044 241.398L170.408 145.661L170.408 18.0299Z" fill="#EC8539" fill-opacity="0.2"/>
</svg>

<svg fill="none" height="302" viewBox="0 0 369 302" width="369" xmlns="http://www.w3.org/2000/svg"><g fill="#fbfbfb"><path d="m313.165 264h1.56l-.48-15h-2.04l-4.992 13.248-5.064-13.248h-2.064l-.504 15h1.512l.264-13.128 4.968 13.032h1.68l4.92-13.008zm10.578-2.424v-3.216c-3.696.408-5.112 1.224-5.112 2.736 0 1.152.936 1.92 2.256 1.92 1.056 0 2.016-.48 2.856-1.44zm.096 1.104h-.072c-.888 1.08-1.944 1.632-3.216 1.632-2.016 0-3.48-1.272-3.48-3.048 0-2.352 2.232-3.648 6.672-3.912v-.648c0-1.752-.864-2.616-2.592-2.616-1.152 0-2.592.576-3.6 1.32l-.336-1.392c1.056-.744 2.688-1.32 4.08-1.32 2.64 0 3.96 1.32 3.936 3.936v5.28c0 .864.192 1.128 1.104 1.104l-.096 1.224c-1.416.096-2.232-.432-2.4-1.56zm6.203 1.32v-16.488l-1.488.312v16.176zm4.249-5.448v.12c.072 2.52 1.56 4.248 3.84 4.248 1.2 0 2.256-.312 3.192-.912l.288 1.368c-1.008.624-2.184.936-3.528.936-3.144 0-5.304-2.328-5.304-5.712 0-1.728.504-3.144 1.488-4.248s2.208-1.656 3.696-1.656c2.448 0 4.008 1.584 4.008 4.056 0 .648-.072 1.224-.24 1.752zm.096-1.176 6.096-.024c.024-.072.024-.24.024-.48 0-1.728-.936-2.832-2.64-2.832-1.896 0-3.216 1.416-3.48 3.336z"/><path d="m1.94148 24h1.536v-6.552h6.04801v-1.416h-6.04801v-5.592h7.29602v-1.44h-8.83202zm11.85002-5.448v.12c.072 2.52 1.56 4.248 3.84 4.248 1.2 0 2.256-.312 3.192-.912l.288 1.368c-1.008.624-2.184.936-3.528.936-3.144 0-5.304-2.328-5.304-5.712 0-1.728.504-3.144 1.488-4.248s2.208-1.656 3.696-1.656c2.448 0 4.008 1.584 4.008 4.056 0 .648-.072 1.224-.24 1.752zm.096-1.176 6.096-.024c.024-.072.024-.24.024-.48 0-1.728-.936-2.832-2.64-2.832-1.896 0-3.216 1.416-3.48 3.336zm25.6014 6.624h-1.488v-7.08c0-1.872-.768-2.808-2.328-2.808-1.056 0-2.088.48-3.096 1.416.024.192.048.528.048.984v7.488h-1.488v-7.08c0-1.872-.768-2.808-2.328-2.808-1.08 0-2.088.432-3.048 1.272v8.616h-1.488v-10.992l1.488-.312v1.512c1.104-1.008 2.256-1.512 3.48-1.512 1.464 0 2.448.6 2.976 1.824 1.224-1.224 2.52-1.824 3.888-1.824 2.112 0 3.384 1.368 3.384 3.792zm9.1294-2.424v-3.216c-3.696.408-5.112 1.224-5.112 2.736 0 1.152.936 1.92 2.256 1.92 1.056 0 2.016-.48 2.856-1.44zm.096 1.104h-.072c-.888 1.08-1.944 1.632-3.216 1.632-2.016 0-3.48-1.272-3.48-3.048 0-2.352 2.232-3.648 6.672-3.912v-.648c0-1.752-.864-2.616-2.592-2.616-1.152 0-2.592.576-3.6 1.32l-.336-1.392c1.056-.744 2.688-1.32 4.08-1.32 2.64 0 3.96 1.32 3.936 3.936v5.28c0 .864.192 1.128 1.104 1.104l-.096 1.224c-1.416.096-2.232-.432-2.4-1.56zm6.2029 1.32v-16.488l-1.488.312v16.176zm4.2493-5.448v.12c.072 2.52 1.56 4.248 3.84 4.248 1.2 0 2.256-.312 3.192-.912l.288 1.368c-1.008.624-2.184.936-3.528.936-3.144 0-5.304-2.328-5.304-5.712 0-1.728.504-3.144 1.488-4.248s2.208-1.656 3.696-1.656c2.448 0 4.008 1.584 4.008 4.056 0 .648-.072 1.224-.24 1.752zm.096-1.176 6.096-.024c.024-.072.024-.24.024-.48 0-1.728-.936-2.832-2.64-2.832-1.896 0-3.216 1.416-3.48 3.336z"/><path d="m299.29 289.732c0-2.184.72-4.152 2.136-5.904 1.416-1.728 3.432-2.904 6.096-3.528l.6 1.872c-3.72.936-5.952 2.808-6.696 5.616l.048.024c1.08-.984 2.352-1.488 3.816-1.488 2.472 0 4.392 1.896 4.392 4.656 0 2.904-2.016 4.992-5.112 4.992-1.656 0-2.928-.6-3.864-1.8-.936-1.176-1.416-2.664-1.416-4.44zm2.088.624c0 2.112 1.296 3.792 3.288 3.792 1.824 0 3.024-1.248 3.024-3.072 0-1.8-1.2-3-2.928-3-1.296 0-2.52.6-3.264 1.272-.072.288-.12.624-.12 1.008zm13.119 5.256h1.944v-11.712l-4.8 1.584.072 1.8 2.784-.888zm6.582-2.712c.432 0 .792.144 1.08.432.288.312.432.672.432 1.08s-.144.768-.432 1.08-.648.48-1.08.48c-.456 0-.816-.168-1.104-.48-.312-.312-.456-.672-.456-1.08s.144-.768.456-1.08c.288-.288.648-.432 1.104-.432zm5.375-2.448c.792-.072 1.368-.12 1.704-.12 3.144 0 5.16 1.8 5.16 4.608 0 1.512-.504 2.76-1.512 3.72-1.032.96-2.28 1.44-3.768 1.44-1.608 0-3-.336-4.176-1.032l.36-1.944c1.32.744 2.616 1.104 3.84 1.104 1.896 0 3.24-1.272 3.24-3.192 0-1.68-1.296-3-3.384-3-1.056 0-2.04.144-2.952.408l-.528-.48.984-7.704h7.488l.072 1.944h-5.952zm15.569-6.408c0 2.208-1.56 3.96-3.984 3.96-2.376 0-3.984-1.752-3.984-3.96 0-1.128.36-2.064 1.104-2.856.72-.768 1.68-1.152 2.88-1.152s2.16.384 2.904 1.152c.72.768 1.08 1.728 1.08 2.856zm7.32-3.768-11.952 15.696h-1.512l11.952-15.696zm1.8 11.928c0 1.128-.36 2.064-1.08 2.832-.744.792-1.704 1.176-2.904 1.176s-2.16-.384-2.88-1.152c-.744-.768-1.104-1.728-1.104-2.856 0-2.208 1.584-3.96 3.984-3.96 2.376 0 3.984 1.752 3.984 3.96zm-10.416-8.16c0-.792-.24-1.44-.72-1.968-.504-.528-1.152-.792-1.968-.792s-1.464.264-1.944.792c-.504.528-.744 1.176-.744 1.968 0 .744.24 1.392.744 1.92.48.528 1.128.792 1.944.792s1.464-.264 1.968-.792c.48-.528.72-1.176.72-1.92zm9.12 8.16c0-.744-.24-1.392-.72-1.92-.504-.528-1.152-.792-1.968-.792s-1.464.264-1.944.792c-.504.528-.744 1.176-.744 1.92 0 .792.24 1.44.744 1.968.48.528 1.128.792 1.944.792s1.464-.264 1.968-.792c.48-.528.72-1.176.72-1.968z"/><path d="m6.50148 50.92c2.28.36 3.52802 1.968 3.52802 3.792 0 1.464-.52802 2.64-1.56001 3.48-1.056.864-2.37601 1.296-3.96001 1.296-1.704 0-3.072-.312-4.055996-.912l.36-1.848c.935996.648 2.183996.96 3.719996.96 2.088 0 3.43201-1.008 3.43201-2.832 0-1.608-1.272-2.448-3.26401-2.52-.6-.024-1.344.048-2.208.192v-1.704c3.24-.744 4.848-1.896 4.848-3.432 0-1.44-.984-2.232-2.712-2.232-1.056 0-2.208.456-3.456 1.392l-.695996-1.68c1.319996-1.032 2.783996-1.56 4.367996-1.56 2.90401 0 4.656 1.536 4.656 3.792 0 1.704-1.296 3.144-3 3.816zm10.86052-4.032c1.344-.552 2.016-1.464 2.016-2.712 0-1.536-1.152-2.52-2.736-2.52-1.8 0-2.856.96-2.856 2.28 0 .288.072.552.216.816s.312.456.48.624.456.36.864.576c.384.216.696.36.912.456.216.12.6.264 1.104.48zm-1.44 1.344c-1.488.48-2.376 1.512-2.376 2.856 0 1.512 1.296 2.52 3.12 2.52 1.896 0 2.928-.816 2.928-2.256 0-.264-.048-.504-.12-.72s-.216-.432-.432-.648-.408-.384-.552-.504-.408-.264-.816-.456-.672-.312-.792-.384c-.144-.072-.456-.192-.96-.408zm2.928-.672c1.848.936 2.76 2.112 2.76 3.552 0 2.4-1.848 4.248-5.04 4.248-3.24 0-5.016-1.704-5.016-4.056 0-1.8 1.44-3.336 2.88-3.72-1.68-.864-2.64-1.824-2.64-3.432 0-2.52 1.896-4.248 4.944-4.248 3.024 0 4.632 1.776 4.632 4.056 0 1.68-1.176 3.048-2.52 3.6zm6.3829 4.728c.432 0 .792.144 1.08.432.288.312.432.672.432 1.08s-.144.768-.432 1.08-.648.48-1.08.48c-.456 0-.816-.168-1.104-.48-.312-.312-.456-.672-.456-1.08s.144-.768.456-1.08c.288-.288.648-.432 1.104-.432zm5.3751-2.448c.792-.072 1.368-.12 1.704-.12 3.144 0 5.16 1.8 5.16 4.608 0 1.512-.504 2.76-1.512 3.72-1.032.96-2.28 1.44-3.768 1.44-1.608 0-3-.336-4.176-1.032l.36-1.944c1.32.744 2.616 1.104 3.84 1.104 1.896 0 3.24-1.272 3.24-3.192 0-1.68-1.296-3-3.384-3-1.056 0-2.04.144-2.952.408l-.528-.48.984-7.704h7.488l.072 1.944h-5.952zm15.569-6.408c0 2.208-1.56 3.96-3.984 3.96-2.376 0-3.984-1.752-3.984-3.96 0-1.128.36-2.064 1.104-2.856.72-.768 1.68-1.152 2.88-1.152s2.16.384 2.904 1.152c.72.768 1.08 1.728 1.08 2.856zm7.32-3.768-11.952 15.696h-1.512l11.952-15.696zm1.8 11.928c0 1.128-.36 2.064-1.08 2.832-.744.792-1.704 1.176-2.904 1.176s-2.16-.384-2.88-1.152c-.744-.768-1.104-1.728-1.104-2.856 0-2.208 1.584-3.96 3.984-3.96 2.376 0 3.984 1.752 3.984 3.96zm-10.416-8.16c0-.792-.24-1.44-.72-1.968-.504-.528-1.152-.792-1.968-.792s-1.464.264-1.944.792c-.504.528-.744 1.176-.744 1.968 0 .744.24 1.392.744 1.92.48.528 1.128.792 1.944.792s1.464-.264 1.968-.792c.48-.528.72-1.176.72-1.92zm9.12 8.16c0-.744-.24-1.392-.72-1.92-.504-.528-1.152-.792-1.968-.792s-1.464.264-1.944.792c-.504.528-.744 1.176-.744 1.92 0 .792.24 1.44.744 1.968.48.528 1.128.792 1.944.792s1.464-.264 1.968-.792c.48-.528.72-1.176.72-1.968z"/></g><path d="m170.429 18.0701c20.65 0 40.991 5.0105 59.278 14.6014 18.288 9.591 33.975 23.476 45.716 40.4634s19.184 36.5701 21.692 57.0671c2.507 20.497.004 41.296-7.295 60.613s-19.176 36.574-34.612 50.291-33.97 23.483-54.011 28.461c-20.041 4.979-40.99 5.02-61.05.12-20.061-4.899-38.632-14.593-54.1221-28.249l84.4041-95.737z" fill="#ec8539"/><path d="m170.408 18.0299c-25.926 0-51.238 7.8958-72.5659 22.6366-21.3281 14.7407-37.6611 35.6273-46.8254 59.8795-9.1644 24.253-10.7253 50.722-4.4751 75.883 6.2502 25.162 20.0151 47.824 39.4628 64.969l84.4036-95.737z" fill="#ec8539" fill-opacity=".2"/></svg>
